X: 8787
T: Cuckoo's Nest, The
R: barndance
M: 4/4
K: Dmajor
F|GA GF E2 e2|B2 AG A2 A2|GF E2 D2 EF|G2 E2 E3F|
GA GF E2 d2|B2 AG A2 A2|FG FE D2 EF|G2 E2 E3B:|:
e2 e2 e2 fe|^d2 B2 B^A Bc|d2 d2 d2 ed|c2 A2 A3F|
GA GF E2 d2|B2 AG A2 A2|GF E2 DD EF|G2 E2 E3F:|:
B4 e4|e4 e4|f2 e2 ^d4|B4 B3^A|
B2 c2 d4|d4 d3e|cd cB A2 A2|GA GF E2 d2|
B2 AG A2 A2|GF E2 DD EF|G2 E2 E4|

